!!!COM: Miguel, Joel Bertram
!!!CDT: b.1938
!!!OTL: National Anthem, Saint Vincent and The Granadines
!!!ENC: Davis, Matthew J.
!!Vocal Line Only
**kern
*clefG2
*k[]
*C:
*M2/2
=1-
4g
=2
4c
4g
4cc
4dd
=3
4.ee
8cc
4g
4c
=4
4e
4g
4cc
4dd
=5
4.b
8a
4g
4g
=6
4f
4g
4a
4b
=7
4.cc
8dd
4ee
8.cc
16dd
=8
4ee
4ff
4..dd
16cc
=9
2cc
2r
==10
!Chorus
2cc
4g
4a
=11
8.g
16f
4e
4r
4c
=12
4e
4c
4.e
8f#
=13
2.g
4r
=14
4a
4a
4g
4f
=15
8.e
16d
4c
4r
8.cc
16dd
=16
4ee
4ff
[4dd
8.dd]
16cc
=17
2.cc
==|!
*-
